X: 20182
M: C
L: 1/16
K: G
|: z2 |\
f6 e2 d4 c4 | B4 B3B c3c d3d | e4 d4 c4 B4 | A4 A3A A4 z4 |\
e6 d2 c4 B4 | A4 A3A B3B c3c | d6 c2 B4 A4 | G4 G3G G4 :|
|: B,2D2 |\
d4 d3c B3AG3F | E2B2c2d2 e2f2g2e2 | d4 c4 B4 A4 | G4 G3G G4 :|




